website/static/projects/index/mindmapper/logo-mark-aero.svg

<?xml version="1.0" encoding="UTF-8"?>
<svg width="341px" height="341px" viewBox="0 0 341 341" version="1.1" xmlns="http://www.w3.org/2000/svg" xmlns:xlink="http://www.w3.org/1999/xlink">
    <title>logo-mark</title>
    <defs>
        <radialGradient cx="20.5848739%" cy="20.119134%" fx="20.5848739%" fy="20.119134%" r="100.08655%" gradientTransform="translate(0.205849,0.201191),scale(1.000000,0.852522),rotate(39.352906),translate(-0.205849,-0.201191)" id="radialGradient-1">
            <stop stop-color="#FFFFFF" offset="0%"></stop>
            <stop stop-color="#9DFFE4" offset="29.4034091%"></stop>
            <stop stop-color="#008AFF" offset="71.5034965%"></stop>
            <stop stop-color="#5452FB" offset="90.9364073%"></stop>
            <stop stop-color="#2F63FF" offset="100%"></stop>
        </radialGradient>
        <path d="M98.4493628,262.78153 C123.306025,299.67808 164.685477,324.520819 211.980626,326.702652 C200.136548,343.522627 180.563096,354.515118 158.42221,354.515118 C122.270179,354.515118 92.9631666,325.208106 92.9631666,289.056075 C92.9631666,279.723806 94.9160692,270.847662 98.4354969,262.814021 L98.4493628,262.78153 Z M225.611167,36.9137228 L223.881253,36.8997228 C299.7936,36.8997228 361.581584,97.3733017 363.698517,172.773769 L363.737167,174.721723 L363.730517,174.396398 C363.725935,174.174183 363.721241,173.95205 363.716013,173.730132 C361.994269,246.0107 302.861343,304.075674 230.166617,304.075674 C177.984043,304.075674 132.789624,274.155824 110.80378,230.537605 C121.830866,234.111231 133.597558,236.042331 145.815283,236.042331 C208.478804,236.042331 259.277625,185.24351 259.277625,122.579989 C259.277625,88.5576075 244.303086,58.032717 220.582847,37.2383458 C222.687238,37.0891445 224.805098,36.9886829 226.935303,36.9380835 L226.15857,36.9221886 L226.15857,36.9221886 L225.611167,36.9137228 Z" id="path-2"></path>
        <radialGradient cx="81.534895%" cy="-35.2513502%" fx="81.534895%" fy="-35.2513502%" r="142.273725%" gradientTransform="translate(0.815349,-0.352514),scale(0.770757,1.000000),rotate(118.483279),translate(-0.815349,0.352514)" id="radialGradient-3">
            <stop stop-color="#2B3920" offset="0%"></stop>
            <stop stop-color="#2E411E" offset="59.95684%"></stop>
            <stop stop-color="#0D7A6C" offset="70.1759178%"></stop>
            <stop stop-color="#49FFA2" offset="100%"></stop>
        </radialGradient>
        <path d="M98.4493628,262.78153 C123.306025,299.67808 164.685477,324.520819 211.980626,326.702652 C200.136548,343.522627 180.563096,354.515118 158.42221,354.515118 C122.270179,354.515118 92.9631666,325.208106 92.9631666,289.056075 C92.9631666,279.723806 94.9160692,270.847662 98.4354969,262.814021 L98.4493628,262.78153 Z" id="path-4"></path>
        <radialGradient cx="30.2494875%" cy="25.4921067%" fx="30.2494875%" fy="25.4921067%" r="88.1079904%" gradientTransform="translate(0.302495,0.254921),rotate(39.871175),scale(1.000000,1.318751),translate(-0.302495,-0.254921)" id="radialGradient-5">
            <stop stop-color="#FFDCB8" offset="0%"></stop>
            <stop stop-color="#D059FF" offset="28.2095381%"></stop>
            <stop stop-color="#CC1AFF" offset="45.6230545%"></stop>
            <stop stop-color="#FF62C5" offset="76.36309%"></stop>
            <stop stop-color="#FFD7E4" offset="100%"></stop>
        </radialGradient>
        <circle id="path-6" cx="116.006597" cy="115.006597" r="96.006597"></circle>
        <filter x="-17.5%" y="-24.1%" width="135.1%" height="148.2%" filterUnits="objectBoundingBox" id="filter-7">
            <feGaussianBlur stdDeviation="9" in="SourceGraphic"></feGaussianBlur>
        </filter>
        <filter x="-22.9%" y="-53.8%" width="145.9%" height="207.7%" filterUnits="objectBoundingBox" id="filter-8">
            <feGaussianBlur stdDeviation="7" in="SourceGraphic"></feGaussianBlur>
        </filter>
    </defs>
    <g id="logo-mark" stroke="none" stroke-width="1" fill="none" fill-rule="evenodd">
        <g id="Group-5" transform="translate(154.481765, 175.500000) rotate(8.000000) translate(-154.481765, -175.500000) translate(-27.518235, -9.500000)">
            <g id="Combined-Shape">
                <use fill="#1BB1FE" xlink:href="#path-2"></use>
                <use fill="url(#radialGradient-1)" xlink:href="#path-2"></use>
            </g>
            <g id="Combined-Shape">
                <use fill="#00BC81" xlink:href="#path-4"></use>
                <use fill="url(#radialGradient-3)" xlink:href="#path-4"></use>
            </g>
            <g id="Oval">
                <use fill="#BD1FFF" xlink:href="#path-6"></use>
                <use fill="url(#radialGradient-5)" xlink:href="#path-6"></use>
            </g>
            <path d="M95.7572031,145.513847 C138.282088,145.513847 172.755318,128.751499 172.755318,97.8235528 C172.755318,66.8956068 138.282088,33.5138468 95.7572031,33.5138468 C53.2323184,33.5138468 18.7590881,66.8956068 18.7590881,97.8235528 C18.7590881,128.751499 53.2323184,145.513847 95.7572031,145.513847 Z" id="Oval" fill="#FFFFFF" opacity="0.423805414" filter="url(#filter-7)" transform="translate(95.757203, 89.513847) rotate(-34.000000) translate(-95.757203, -89.513847) "></path>
            <path d="M124.177275,335.133446 C147.638404,337.128458 165.831326,352.110206 171.278748,339.875094 C176.726171,327.639982 136.826649,305.634732 117.016179,305.634732 C97.2057091,305.634732 80.2085183,316.555955 80.2085183,330.963922 C80.2085183,345.371889 100.716146,333.138433 124.177275,335.133446 Z" id="Oval" fill="#FFFFFF" opacity="0.369367733" filter="url(#filter-8)" transform="translate(125.996623, 325.134732) rotate(-141.000000) translate(-125.996623, -325.134732) "></path>
        </g>
    </g>
</svg>

<svg width="341" height="341" viewBox="0 0 341 341" xmlns="http://www.w3.org/2000/svg" xmlns:xlink="http://www.w3.org/1999/xlink"><defs><radialGradient cx="20.58%" cy="20.12%" fx="20.58%" fy="20.12%" r="100.09%" gradientTransform="scale(1 .85252) rotate(39.35 .16 .22)" id="b"><stop stop-color="#FFF" offset="0%"/><stop stop-color="#9DFFE4" offset="29.4%"/><stop stop-color="#008AFF" offset="71.5%"/><stop stop-color="#5452FB" offset="90.94%"/><stop stop-color="#2F63FF" offset="100%"/></radialGradient><radialGradient cx="81.53%" cy="-35.25%" fx="81.53%" fy="-35.25%" r="142.27%" gradientTransform="scale(-.77076 -1) rotate(-61.52 .47 1.57)" id="d"><stop stop-color="#2B3920" offset="0%"/><stop stop-color="#2E411E" offset="59.96%"/><stop stop-color="#0D7A6C" offset="70.18%"/><stop stop-color="#49FFA2" offset="100%"/></radialGradient><radialGradient cx="30.25%" cy="25.49%" fx="30.25%" fy="25.49%" r="88.11%" gradientTransform="rotate(39.87 .41 .3) scale(1 1.31875)" id="f"><stop stop-color="#FFDCB8" offset="0%"/><stop stop-color="#D059FF" offset="28.21%"/><stop stop-color="#CC1AFF" offset="45.62%"/><stop stop-color="#FF62C5" offset="76.36%"/><stop stop-color="#FFD7E4" offset="100%"/></radialGradient><filter x="-17.5%" y="-24.1%" width="135.1%" height="148.2%" filterUnits="objectBoundingBox" id="g"><feGaussianBlur stdDeviation="9" in="SourceGraphic"/></filter><filter x="-22.9%" y="-53.8%" width="145.9%" height="207.7%" filterUnits="objectBoundingBox" id="h"><feGaussianBlur stdDeviation="7" in="SourceGraphic"/></filter><path d="M98.45 262.78a144.86 144.86 0 0 0 113.53 63.92 65.46 65.46 0 0 1-113.55-63.89l.02-.03ZM225.6 36.91l-1.73-.01c75.91 0 137.7 60.47 139.82 135.87l.04 1.95v-.32l-.02-.67c-1.73 72.28-60.86 130.35-133.55 130.35-52.19 0-97.38-29.92-119.37-73.54 11.03 3.57 22.8 5.5 35.02 5.5 62.66 0 113.46-50.8 113.46-113.46 0-34.02-14.98-64.55-38.7-85.34 2.1-.15 4.23-.25 6.36-.3l-.78-.02h-.55Z" id="a"/><path d="M98.45 262.78a144.86 144.86 0 0 0 113.53 63.92 65.46 65.46 0 0 1-113.55-63.89l.02-.03Z" id="c"/><circle id="e" cx="116.01" cy="115.01" r="96.01"/></defs><g fill="none" fill-rule="evenodd"><g transform="rotate(8 236.17 -16.51)"><use fill="#1BB1FE" xlink:href="#a"/><use fill="url(#b)" xlink:href="#a"/></g><g transform="rotate(8 236.17 -16.51)"><use fill="#00BC81" xlink:href="#c"/><use fill="url(#d)" xlink:href="#c"/></g><g transform="rotate(8 236.17 -16.51)"><use fill="#BD1FFF" xlink:href="#e"/><use fill="url(#f)" xlink:href="#e"/></g><path d="M95.76 145.51c42.52 0 77-16.76 77-47.69 0-30.92-34.48-64.3-77-64.3-42.53 0-77 33.38-77 64.3 0 30.93 34.47 47.7 77 47.7Z" fill="#FFF" opacity=".42" filter="url(#g)" transform="rotate(-26 44.5 108.23)"/><path d="M124.18 335.13c23.46 2 41.65 16.98 47.1 4.75 5.45-12.24-34.45-34.25-54.26-34.25-19.81 0-36.81 10.93-36.81 25.33 0 14.41 20.5 2.18 43.97 4.17Z" fill="#FFF" opacity=".37" filter="url(#h)" transform="rotate(-133 98.7 325.91)"/></g></svg>
